X:768010
T:Skye Boat Song
H: a late 19th-century Scottish song recalling the journey of Prince Charles Edward Stuart (Bonnie Prince Charlie) from Benbecula to the Isle of Skye as he evaded capture by government troops after his defeat at the Battle of Culloden in 1746.
C: Trad 
B: 
O:Kevin Fraser
Z:Kevin Fraser
Q:3/8=60
K:HP
M:6/8
L:1/8
R:March
U: R = ///
U: r = //
U: V = !accent!
V:M gstem=up stem=down name="Melody"
V:H gstem=up stem=down name="Harmony"
V:C gstem=up stem=down name="C-Harmony"
V:S gstem=up stem=down dyn=up stafflines=1 clef=perc middle=G name="Snare" sname="Snare"
V:B gstem=up stem=down clef=none dyn=up name="Bass"
V:T gstem=up stem=down clef=none dyn=up name="Tenor"
V:BB gstem=up stem=down name="Brass Bass" sname="ABCD-C" transpose=-1  octave=-1 clef=bass
V:BC gstem=up stem=down name="Brass Chord" sname="ABCD-D" transpose=-1
V:BD gstem=up stem=down name="Brass Chord 2" sname="ABCD-B" transpose=-1
V:P gstem=up stem=down name="Piano" octave=-1
I:MIDI=program 110
%%MIDI gracedivider 4
%%MIDI gchord
%%MIDI beatstring 
%%score {M H}
%%MIDI program 109 #bagpipes
%%MIDI vol 100
[V:M][| {g}A>{d}B{e}A {Gdc}d>{g}cd | {g}e>f{g}e {ag}a3 | {fg}f>e{g}f {g}B2{GdGe}B | {g}A3 {GAG}A3 | $
w:hen do un tra ho a | he ve he dili | vedi e che ho darido | hen rarin |
[V:M]{g}A>{d}B{e}A {Gdc}d>{g}cd | {g}e>f{g}e {ag}a3 | {fg}f>e{g}f {g}B2{GdGe}B | {g}A3 {GAG}A3 |] $
w:hen do un tra ho a | he ve he dili | vedi e che ho darido | hen rarin |
[V:M][| {gfg}f>df {gfg}f3 | {gef}e>Be {gef}e3 | {Gdc}d>{g}Bc {Gdc}d2c | {g}B3 {GdGe}B3 | $
w: chete a ve chete | hete o e hete | tra ho a tra o | ho darido |
[V:M]{gfg}f>df {gfg}f3 | {gef}e>Be {gef}e3 | {Gdc}d>{g}Bc {Gdc}d2c | {g}B3 {GdGe}B3 |] $
w: chete a ve chete | hete o e hete | tra ho a tra o | ho darido |
[V:M][| {g}A>{d}B{e}A {Gdc}d>{g}cd | {g}e>f{g}e {ag}a3 | {fg}f>e{g}f {g}B2{GdGe}B | {g}A3 {GAG}A3 | $
w:hen do un tra ho a | he ve he dili | vedi e che ho darido | hen rarin |
[V:M]{g}A>{d}B{e}A {Gdc}d>{g}cd | {g}e>f{g}e {ag}a3 | {fg}f>e{g}f {g}B2c | {Gdc}d3 {gdG}d3 |] $
w:hen do un tra ho a | he ve he dili | vedi e che ho o | tra hadoa |
[V:H][| {g}A>{d}B{e}A {Gdc}d>{g}cd | {g}e>f{g}e {ag}a3 | {fg}f>e{g}f {g}B2{GdGe}B | {g}A3 {GAG}A3 | $
[V:H]{g}c>dc {gBd}B>{e}A{d}B | {g}c>dc {gfg}f3 | {Gdc}d>cd {g}G2{e}G | {g}c3 {GdG}c3 |] $
[V:H][| {gfg}f>df {gfg}f3 | {gef}e>Be {gef}e3 | {Gdc}d>{g}Bc {Gdc}d2c | {g}B3 {GdGe}B3 | $
[V:H]{gde}d>Bd {gde}d3 | {gcd}c>Ac {gcd}c3 | {gBd}B>{g}GA {g}B2{GdGe}B | {g}G3 {d}G3 |] $ 
[V:H][| {g}A>{d}B{e}A {Gdc}d>{g}cd | {g}e>f{g}e {ag}a3 | {fg}f>e{g}f {g}B2{GdGe}B | {g}A3 {GAG}A3 | $
[V:H]{g}c>dc {gBd}B>{e}A{d}B | {g}c>dc {gfg}f3 | {Gdc}d>cd {g}G2{e}A | {g}B3 {G}A3 |] $+
W:In this typesetting, repeats are not written; The part is explicitely written in full.
W:The harmonies are written out in full rather than using the convention of play the harmonies on the repeat.


